X: 1
T: Nellie's
M: 6/8
L: 1/8
R: jig
K: Gmaj
|:d|&quot;G&quot;g2 d BdB|GDG BAG|&quot;Am&quot;AcA FEF|&quot;D&quot;DFA def|
&quot;G&quot;g2 d BdB|GDG BAG|&quot;Am&quot;ABc def|&quot;G&quot;g3 g2:|
|:F|&quot;G&quot;G2 g gfg|ded BAG|&quot;Am&quot;A2 a aba|&quot;D&quot;fed cBA|
&quot;G&quot;G2 g gfg|ded BAG|&quot;Am&quot;ABc def|&quot;G&quot;g3 g2:|
